X:420
T: Paddy Cronin's Jig
S: "Crossroads Dance" [Taylor/Mallinson]
Z: B.Black
R: jig
M: 6/8
L: 1/8
K: Edor
B|E3 FEE|BEE GFE|DFD FDF|AFA dAF|
E3 FEE|BEE GFE|dcB AFA|BEE E2 :|
f|efe BAB|def afe|fdd Add|faf fed|
efe BAB|def afe|fdB AFA|BEE E2 :|
